X: 21865
T: Kiss Her Sweetly
R: reel
M: 4/4
K: Dmajor
A|:FAdA BAdA|FAdf eEEG|FAdA BABd|1 afef d2 dA:|2 afef d2 df||
|:afef fgab|afde feef|afde fdec|1 dBAF D2 Df:|2 dBAF D2 D2||

